_includes/icons/ios-rent.svg

<svg fill="#666" height="50" viewBox="0 0 50 50" width="50" xmlns="http://www.w3.org/2000/svg"><path d="m24.964844 1a1.0001 1.0001 0 0 0 -.582032.2128906l-19.960937 15.6230474-3.0390625 2.376953a1.0002305 1.0002305 0 1 0 1.234375 1.574218l1.3828125-1.082031v26.294922a1.0001 1.0001 0 0 0 1 1h40a1.0001 1.0001 0 0 0 1-1v-26.294922l1.382812 1.082031a1.0002308 1.0002308 0 1 0 1.234376-1.574218l-2.984376-2.333985-20.015624-15.6660154a1.0001 1.0001 0 0 0 -.652344-.2128906zm.035156 2.2695312 19 14.8691408v26.861328h-38v-26.861328zm-1 11.7304688v2.099609c-3.443.363-5.576172 2.402329-5.576172 5.361329 0 7.539999 11.210938 3.997218 11.210938 9.199218 0 2.01-1.884766 3.351563-4.634766 3.351563s-4.566797-1.531282-4.716797-3.363281h-2.337891c.014 3.000999 2.391688 5.13464 6.054688 5.43164v1.919922h2v-1.939453c3.792-.342 6-2.378844 6-5.589844 0-7.428-11.224609-4.445484-11.224609-9.146484 0-1.709 1.516609-3.13086 4.224609-3.13086s4.265312 1.531235 4.320312 3.240235h2.324219c-.095-2.937-2.310531-5.02275-5.644531-5.34375v-2.089844z"/></svg>

<svg xmlns="http://www.w3.org/2000/svg" viewBox="0 0 50 50" width="50" height="50" fill="#666"><path d="M 24.964844 1 A 1.0001 1.0001 0 0 0 24.382812 1.2128906 L 4.421875 16.835938 L 1.3828125 19.212891 A 1.0002305 1.0002305 0 1 0 2.6171875 20.787109 L 4 19.705078 L 4 46 A 1.0001 1.0001 0 0 0 5 47 L 45 47 A 1.0001 1.0001 0 0 0 46 46 L 46 19.705078 L 47.382812 20.787109 A 1.0002308 1.0002308 0 1 0 48.617188 19.212891 L 45.632812 16.878906 L 25.617188 1.2128906 A 1.0001 1.0001 0 0 0 24.964844 1 z M 25 3.2695312 L 44 18.138672 L 44 45 L 6 45 L 6 18.138672 L 25 3.2695312 z M 24 15 L 24 17.099609 C 20.557 17.462609 18.423828 19.501938 18.423828 22.460938 C 18.423828 30.000937 29.634766 26.458156 29.634766 31.660156 C 29.634766 33.670156 27.75 35.011719 25 35.011719 C 22.25 35.011719 20.433203 33.480437 20.283203 31.648438 L 17.945312 31.648438 C 17.959312 34.649437 20.337 36.783078 24 37.080078 L 24 39 L 26 39 L 26 37.060547 C 29.792 36.718547 32 34.681703 32 31.470703 C 32 24.042703 20.775391 27.025219 20.775391 22.324219 C 20.775391 20.615219 22.292 19.193359 25 19.193359 C 27.708 19.193359 29.265312 20.724594 29.320312 22.433594 L 31.644531 22.433594 C 31.549531 19.496594 29.334 17.410844 26 17.089844 L 26 15 L 24 15 z"/></svg>
